storage/app/icons/phosphoricons/bold/replit-logo-bold.svg

<svg xmlns="http://www.w3.org/2000/svg" fill="currentColor" viewBox="0 0 256 256"><path d="M216 84h-60V40a20 20 0 0 0-20-20H72a20 20 0 0 0-20 20v48a20 20 0 0 0 20 20h60v40H72a20 20 0 0 0-20 20v48a20 20 0 0 0 20 20h64a20 20 0 0 0 20-20v-44h60a20 20 0 0 0 20-20v-48a20 20 0 0 0-20-20m-84 128H76v-40h56Zm0-128H76V44h56Zm80 64h-56v-40h56Z"/></svg>

<svg xmlns="http://www.w3.org/2000/svg" viewBox="0 0 256 256" fill="currentColor"><path d="M216,84H156V40a20,20,0,0,0-20-20H72A20,20,0,0,0,52,40V88a20,20,0,0,0,20,20h60v40H72a20,20,0,0,0-20,20v48a20,20,0,0,0,20,20h64a20,20,0,0,0,20-20V172h60a20,20,0,0,0,20-20V104A20,20,0,0,0,216,84ZM132,212H76V172h56Zm0-128H76V44h56Zm80,64H156V108h56Z"/></svg>
